svg/fluentui-system-icons/ic_fluent_text_bullet_list_square_16_filled.svg

<svg width="16" height="16" viewBox="0 0 16 16" fill="none" xmlns="http://www.w3.org/2000/svg">
<path d="M2 4.5C2 3.11929 3.11929 2 4.5 2H11.5C12.8807 2 14 3.11929 14 4.5V11.5C14 12.8807 12.8807 14 11.5 14H4.5C3.11929 14 2 12.8807 2 11.5V4.5ZM5.5 5C5.5 4.58579 5.16421 4.25 4.75 4.25C4.33579 4.25 4 4.58579 4 5C4 5.41421 4.33579 5.75 4.75 5.75C5.16421 5.75 5.5 5.41421 5.5 5ZM5.5 8C5.5 7.58579 5.16421 7.25 4.75 7.25C4.33579 7.25 4 7.58579 4 8C4 8.41421 4.33579 8.75 4.75 8.75C5.16421 8.75 5.5 8.41421 5.5 8ZM4.75 11.75C5.16421 11.75 5.5 11.4142 5.5 11C5.5 10.5858 5.16421 10.25 4.75 10.25C4.33579 10.25 4 10.5858 4 11C4 11.4142 4.33579 11.75 4.75 11.75ZM6.5 5C6.5 5.27614 6.72386 5.5 7 5.5H11.5C11.7761 5.5 12 5.27614 12 5C12 4.72386 11.7761 4.5 11.5 4.5H7C6.72386 4.5 6.5 4.72386 6.5 5ZM7 7.5C6.72386 7.5 6.5 7.72386 6.5 8C6.5 8.27614 6.72386 8.5 7 8.5H11.5C11.7761 8.5 12 8.27614 12 8C12 7.72386 11.7761 7.5 11.5 7.5H7ZM6.5 11C6.5 11.2761 6.72386 11.5 7 11.5H11.5C11.7761 11.5 12 11.2761 12 11C12 10.7239 11.7761 10.5 11.5 10.5H7C6.72386 10.5 6.5 10.7239 6.5 11Z" fill="#212121"/>
</svg>

<svg xmlns="http://www.w3.org/2000/svg" width="16" height="16"><path d="M2 4.5A2.5 2.5 0 0 1 4.5 2h7A2.5 2.5 0 0 1 14 4.5v7a2.5 2.5 0 0 1-2.5 2.5h-7A2.5 2.5 0 0 1 2 11.5v-7Zm3.5.5A.75.75 0 1 0 4 5a.75.75 0 0 0 1.5 0Zm0 3A.75.75 0 1 0 4 8a.75.75 0 0 0 1.5 0Zm-.75 3.75a.75.75 0 1 0 0-1.5.75.75 0 0 0 0 1.5ZM6.5 5a.5.5 0 0 0 .5.5h4.5a.5.5 0 0 0 0-1H7a.5.5 0 0 0-.5.5ZM7 7.5a.5.5 0 0 0 0 1h4.5a.5.5 0 0 0 0-1H7ZM6.5 11a.5.5 0 0 0 .5.5h4.5a.5.5 0 0 0 0-1H7a.5.5 0 0 0-.5.5Z"/></svg>
